X: 71
T:Rolling in the Ryegrass
T:Shannon Breezes, The
R:reel
Z:id:hn-reel-105
M:C|
K:D
ABAF DFAF|G2BG dGBG|~A3F DFAF|GBAF EFDF|
~A3F DFAF|GFEF GBdB|ABAF DFAF|GBAF EFD2||
ABde ~f3d|~g3e fedB|ABde fefg|afdf (3efe dB|
ABde fAdf|~g3e fedB|ABde fefg|afdf efdB||
